assets/images/icons/calendar-day.svg

<svg width="14" height="14" viewBox="0 0 14 14" fill="none" xmlns="http://www.w3.org/2000/svg">
<path d="M3.99994 3.99988C3.92417 3.99988 3.8515 3.96978 3.79792 3.9162C3.74434 3.86263 3.71424 3.78996 3.71424 3.71419C3.71424 3.63841 3.74434 3.56575 3.79792 3.51217C3.8515 3.45859 3.92417 3.42849 3.99994 3.42849C4.0847 3.42849 4.16755 3.40335 4.23803 3.35626C4.3085 3.30918 4.36343 3.24225 4.39587 3.16394C4.4283 3.08563 4.43679 2.99947 4.42025 2.91634C4.40372 2.83321 4.3629 2.75685 4.30297 2.69691C4.24304 2.63698 4.16668 2.59617 4.08355 2.57963C4.00042 2.56309 3.91425 2.57158 3.83594 2.60402C3.75764 2.63645 3.69071 2.69138 3.64362 2.76185C3.59653 2.83233 3.57139 2.91518 3.57139 2.99994C3.57139 3.07571 3.54129 3.14838 3.48772 3.20196C3.43414 3.25554 3.36147 3.28564 3.2857 3.28564C3.20993 3.28564 3.13726 3.25554 3.08368 3.20196C3.0301 3.14838 3 3.07571 3 2.99994C3 2.80217 3.05865 2.60884 3.16852 2.4444C3.2784 2.27996 3.43456 2.1518 3.61728 2.07612C3.8 2.00043 4.00105 1.98063 4.19502 2.01921C4.38899 2.0578 4.56716 2.15303 4.70701 2.29288C4.84685 2.43272 4.94209 2.61089 4.98067 2.80486C5.01925 2.99883 4.99945 3.19989 4.92377 3.3826C4.84808 3.56532 4.71992 3.72149 4.55548 3.83136C4.39104 3.94124 4.19771 3.99988 3.99994 3.99988Z" fill="#7FB51F"/>
<path d="M5.99994 3.99988C5.92417 3.99988 5.8515 3.96978 5.79792 3.9162C5.74434 3.86263 5.71424 3.78996 5.71424 3.71419C5.71424 3.63841 5.74434 3.56575 5.79792 3.51217C5.8515 3.45859 5.92417 3.42849 5.99994 3.42849C6.0847 3.42849 6.16755 3.40335 6.23803 3.35626C6.3085 3.30918 6.36343 3.24225 6.39587 3.16394C6.4283 3.08563 6.43679 2.99947 6.42025 2.91634C6.40372 2.83321 6.3629 2.75685 6.30297 2.69691C6.24304 2.63698 6.16668 2.59617 6.08355 2.57963C6.00042 2.56309 5.91425 2.57158 5.83594 2.60402C5.75764 2.63645 5.69071 2.69138 5.64362 2.76185C5.59653 2.83233 5.57139 2.91518 5.57139 2.99994C5.57139 3.07571 5.54129 3.14838 5.48772 3.20196C5.43414 3.25554 5.36147 3.28564 5.2857 3.28564C5.20993 3.28564 5.13726 3.25554 5.08368 3.20196C5.0301 3.14838 5 3.07571 5 2.99994C5 2.80217 5.05865 2.60884 5.16852 2.4444C5.2784 2.27996 5.43456 2.1518 5.61728 2.07612C5.8 2.00043 6.00105 1.98063 6.19502 2.01921C6.38899 2.0578 6.56716 2.15303 6.70701 2.29288C6.84685 2.43272 6.94209 2.61089 6.98067 2.80486C7.01925 2.99883 6.99945 3.19989 6.92377 3.3826C6.84808 3.56532 6.71992 3.72149 6.55548 3.83136C6.39104 3.94124 6.19771 3.99988 5.99994 3.99988Z" fill="#7FB51F"/>
<path d="M7.99994 3.99988C7.92417 3.99988 7.8515 3.96978 7.79792 3.9162C7.74434 3.86263 7.71424 3.78996 7.71424 3.71419C7.71424 3.63841 7.74434 3.56575 7.79792 3.51217C7.8515 3.45859 7.92417 3.42849 7.99994 3.42849C8.0847 3.42849 8.16755 3.40335 8.23803 3.35626C8.3085 3.30918 8.36343 3.24225 8.39587 3.16394C8.4283 3.08563 8.43679 2.99947 8.42025 2.91634C8.40372 2.83321 8.3629 2.75685 8.30297 2.69691C8.24304 2.63698 8.16668 2.59617 8.08355 2.57963C8.00042 2.56309 7.91425 2.57158 7.83594 2.60402C7.75764 2.63645 7.69071 2.69138 7.64362 2.76185C7.59653 2.83233 7.57139 2.91518 7.57139 2.99994C7.57139 3.07571 7.54129 3.14838 7.48772 3.20196C7.43414 3.25554 7.36147 3.28564 7.2857 3.28564C7.20993 3.28564 7.13726 3.25554 7.08368 3.20196C7.0301 3.14838 7 3.07571 7 2.99994C7 2.80217 7.05865 2.60884 7.16852 2.4444C7.2784 2.27996 7.43456 2.1518 7.61728 2.07612C7.8 2.00043 8.00105 1.98063 8.19502 2.01921C8.38899 2.0578 8.56716 2.15303 8.70701 2.29288C8.84685 2.43272 8.94209 2.61089 8.98067 2.80486C9.01925 2.99883 8.99945 3.19989 8.92377 3.3826C8.84808 3.56532 8.71992 3.72149 8.55548 3.83136C8.39104 3.94124 8.19771 3.99988 7.99994 3.99988Z" fill="#7FB51F"/>
<path d="M9.99896 3.99988C9.92319 3.99988 9.85052 3.96978 9.79695 3.9162C9.74337 3.86263 9.71327 3.78996 9.71327 3.71419C9.71327 3.63841 9.74337 3.56575 9.79695 3.51217C9.85052 3.45859 9.92319 3.42849 9.99896 3.42849C10.0837 3.42849 10.1666 3.40335 10.2371 3.35626C10.3075 3.30918 10.3625 3.24225 10.3949 3.16394C10.4273 3.08563 10.4358 2.99947 10.4193 2.91634C10.4027 2.83321 10.3619 2.75685 10.302 2.69691C10.2421 2.63698 10.1657 2.59617 10.0826 2.57963C9.99944 2.56309 9.91327 2.57158 9.83497 2.60402C9.75666 2.63645 9.68973 2.69138 9.64264 2.76185C9.59555 2.83233 9.57042 2.91518 9.57042 2.99994C9.57042 3.07571 9.54032 3.14838 9.48674 3.20196C9.43316 3.25554 9.36049 3.28564 9.28472 3.28564C9.20895 3.28564 9.13628 3.25554 9.0827 3.20196C9.02912 3.14838 8.99902 3.07571 8.99902 2.99994C8.99902 2.80217 9.05767 2.60884 9.16754 2.4444C9.27742 2.27996 9.43359 2.1518 9.6163 2.07612C9.79902 2.00043 10.0001 1.98063 10.194 2.01921C10.388 2.0578 10.5662 2.15303 10.706 2.29288C10.8459 2.43272 10.9411 2.61089 10.9797 2.80486C11.0183 2.99883 10.9985 3.19989 10.9228 3.3826C10.8471 3.56532 10.7189 3.72149 10.5545 3.83136C10.3901 3.94124 10.1967 3.99988 9.99896 3.99988Z" fill="#7FB51F"/>
<path d="M11.8509 4.65704L11.568 2.95428C11.5572 2.88714 11.5227 2.82608 11.4709 2.78208C11.419 2.73809 11.3532 2.71405 11.2852 2.71429H2.71426C2.6988 2.71318 2.68328 2.71512 2.66857 2.72001C2.65301 2.72246 2.6377 2.72629 2.62282 2.73143C2.56641 2.75025 2.51733 2.78628 2.48249 2.83446C2.44764 2.88264 2.42878 2.94053 2.42856 2.99999V3.01999L1.00293 11.5223C0.997125 11.5638 0.999965 11.606 1.01127 11.6464C1.02258 11.6867 1.04212 11.7242 1.06864 11.7566C1.0956 11.7878 1.12892 11.8129 1.16638 11.8301C1.20383 11.8474 1.24454 11.8564 1.28577 11.8566H12.7137C12.7551 11.8565 12.796 11.8475 12.8335 11.8301C12.8711 11.8128 12.9045 11.7875 12.9313 11.756C12.9582 11.7245 12.978 11.6876 12.9892 11.6477C13.0005 11.6079 13.0029 11.5661 12.9965 11.5252L11.8509 4.65704ZM10.1424 8.14254C10.1424 8.59459 10.0083 9.03648 9.7572 9.41234C9.50606 9.78821 9.1491 10.0812 8.73147 10.2541C8.31383 10.4271 7.85428 10.4724 7.41092 10.3842C6.96756 10.296 6.56031 10.0783 6.24066 9.75869C5.92102 9.43905 5.70334 9.0318 5.61515 8.58844C5.52696 8.14508 5.57222 7.68553 5.74521 7.26789C5.9182 6.85026 6.21115 6.4933 6.58701 6.24215C6.96287 5.99101 7.40477 5.85696 7.85681 5.85696C8.46277 5.85766 9.04372 6.09868 9.4722 6.52716C9.90068 6.95564 10.1417 7.53658 10.1424 8.14254ZM11.0423 3.28569L11.2338 4.42848H3.24757L3.0571 3.28569H11.0423ZM2.42856 11.2852H1.62287L2.42856 6.47693L2.71949 4.73994C2.72033 4.74885 2.72305 4.75706 2.72472 4.76573L2.99996 6.4255L3.80564 11.2852H2.42856Z" fill="#7FB51F"/>
<path d="M6.14258 8.14253C6.14258 8.48156 6.24311 8.81298 6.43147 9.09488C6.61983 9.37678 6.88755 9.59649 7.20077 9.72623C7.514 9.85597 7.85866 9.88992 8.19118 9.82378C8.5237 9.75763 8.82914 9.59437 9.06887 9.35464C9.30861 9.11491 9.47187 8.80947 9.53801 8.47695C9.60415 8.14443 9.57021 7.79977 9.44046 7.48654C9.31072 7.17331 9.09101 6.90559 8.80911 6.71724C8.52722 6.52888 8.1958 6.42834 7.85676 6.42834C7.40229 6.42884 6.96656 6.6096 6.6452 6.93097C6.32384 7.25233 6.14307 7.68805 6.14258 8.14253ZM8.14246 7.28544V8.02423L8.63015 8.51192C8.65695 8.53838 8.67825 8.56989 8.69283 8.60462C8.70741 8.63935 8.71497 8.67662 8.71509 8.71428C8.71521 8.75195 8.70788 8.78926 8.69352 8.82409C8.67917 8.85891 8.65806 8.89055 8.63143 8.91718C8.6048 8.94381 8.57316 8.96492 8.53834 8.97928C8.50352 8.99364 8.4662 9.00097 8.42854 9.00085C8.39087 9.00073 8.3536 8.99317 8.31887 8.97859C8.28414 8.96401 8.25264 8.94271 8.22617 8.91591L7.65477 8.34452C7.62823 8.318 7.60718 8.28651 7.59282 8.25186C7.57845 8.2172 7.57106 8.18005 7.57107 8.14253V7.28544C7.57107 7.20967 7.60117 7.137 7.65474 7.08342C7.70832 7.02984 7.78099 6.99974 7.85676 6.99974C7.93253 6.99974 8.0052 7.02984 8.05878 7.08342C8.11236 7.137 8.14246 7.20967 8.14246 7.28544Z" fill="#7FB51F"/>
</svg>

<svg xmlns="http://www.w3.org/2000/svg" width="14" height="14" fill="none"><path fill="#7FB51F" d="M4 4a.286.286 0 0 1 0-.572A.429.429 0 1 0 3.57 3 .286.286 0 0 1 3 3a1 1 0 1 1 1 1"/><path fill="#7FB51F" d="M6 4a.286.286 0 0 1 0-.572A.429.429 0 1 0 5.57 3 .286.286 0 0 1 5 3a1 1 0 1 1 1 1"/><path fill="#7FB51F" d="M8 4a.286.286 0 0 1 0-.572A.429.429 0 1 0 7.57 3 .286.286 0 0 1 7 3a1 1 0 1 1 1 1"/><path fill="#7FB51F" d="M9.999 4a.286.286 0 1 1 0-.572A.429.429 0 1 0 9.57 3 .286.286 0 0 1 9 3a1 1 0 1 1 1 1"/><path fill="#7FB51F" d="m11.85 4.657-.282-1.703a.286.286 0 0 0-.283-.24h-8.57a.1.1 0 0 0-.046.006.284.284 0 0 0-.24.28v.02l-1.426 8.502a.3.3 0 0 0 .066.235.3.3 0 0 0 .217.1h11.428a.286.286 0 0 0 .282-.332zm-1.708 3.486a2.286 2.286 0 1 1-4.571 0 2.286 2.286 0 0 1 4.571 0m.9-4.857.192 1.142H3.248l-.19-1.142zm-8.613 8h-.806l.806-4.81.29-1.736.006.026L3 6.426l.806 4.86z"/><path fill="#7FB51F" d="M6.143 8.143a1.714 1.714 0 1 0 3.428 0 1.714 1.714 0 0 0-3.428 0m2-.858v.74l.487.487a.286.286 0 1 1-.404.404l-.571-.571a.3.3 0 0 1-.084-.202v-.858a.286.286 0 0 1 .571 0"/></svg>
